X:56
T:JNDNGWV1- Jenny beguil'd the Webster
S:(Jenny dang the weaver) Orpheus Caledonius, II, 1733
Q:1/4=120
L:1/8
M:C
K:D
d|d A A A A F A A|A B d ef2e d|g B B d B A B d|A B d e f2e d|\
d e f d e f g e|d e f d e2d B|d e f d e f g e|g a A g f2 ed|]

